**harm	**harte	**silbe	**silbe	**rhyme	**timestamp	**phrase	**leadinstrument	**kern
*M4/4	*M4/4	*	*	*	*	*	*	*
*	*	*	*	*	*	*	*	*
*	*	*	*	*	*	*	*	*
*E-:	*E-:	*	*	*	*	*	*	*E-:
*	*	*	*	*	*	*	*	*
*	*	*	*	*	*	*	*	*
1r;	N	.	.	.	0	.	r	1r;
=1	=1	=1	=1	=1	=1	=1	=1	=1
*>Letter>A	*>Letter>A	*>Letter>A	*>Letter>A	*>Letter>A	*>Letter>A	*>Letter>A	*>Letter>A	*>Letter>A
*>Label>Intro	*>Label>Intro	*>Label>Intro	*>Label>Intro	*>Label>Intro	*>Label>Intro	*>Label>Intro	*>Label>Intro	*>Label>Intro
1V7	B-:sus4(b7)	.	.	.	0.372	newline	r	1B- 1dd 1ff 1aa-
=2	=2	=2	=2	=2	=2	=2	=2	=2
1V7	B-:sus4(b7)	.	.	.	2.98	.	r	1B- 1dd 1ff 1aa-
=3	=3	=3	=3	=3	=3	=3	=3	=3
*E:	*E:	*	*	*	*	*	*	*E:
1V7	B:sus4(b7)	.	.	.	5.588	.	r	1B 1dd# 1ff# 1aa
=4	=4	=4	=4	=4	=4	=4	=4	=4
1V7	B:sus4(b7)	.	.	.	8.196	.	r	1B 1dd# 1ff# 1aa
.	.	.	.	.	.	.	.	.
.	.	.	.	.	.	.	.	.
.	.	Whoa	Whoa	.	.	.	.	.
=5	=5	=5	=5	=5	=5	=5	=5	=5
*>Letter>B	*>Letter>B	*>Letter>B	*>Letter>B	*>Letter>B	*>Letter>B	*>Letter>B	*>Letter>B	*>Letter>B
*>Label>Verse	*>Label>Verse	*>Label>Verse	*>Label>Verse	*>Label>Verse	*>Label>Verse	*>Label>Verse	*>Label>Verse	*>Label>Verse
1I7	E:maj7	.	.	.	10.805	newline	voice	1E 1g# 1b 1dd#
.	.	.	.	.	.	.	.	.
.	.	.	.	.	.	.	.	.
.	.	Oh,	Oh,	.	.	.	.	.
.	.	_	_	.	.	.	.	.
.	.	mer	mer	.	.	.	.	.
=6	=6	=6	=6	=6	=6	=6	=6	=6
1I7	E:maj7	_	_	.	13.38	.	voice	1E 1g# 1b 1dd#
.	.	cy,	cy,	.	.	.	.	.
.	.	mer	mer	.	.	.	.	.
.	.	_	_	.	.	.	.	.
.	.	cy	cy	.	.	.	.	.
.	.	me	me	A	.	.	.	.
.	.	_	_	.	.	.	.	.
.	.	.	.	.	.	.	.	.
=7	=7	=7	=7	=7	=7	=7	=7	=7
1vi7	C#:min7	.	.	.	15.955	.	voice	1C# 1e 1g# 1b
.	.	.	.	.	.	.	.	.
.	.	.	.	.	.	.	.	.
.	.	Oh,	Oh,	.	.	.	.	.
.	.	_	_	.	.	.	.	.
.	.	things	things	.	.	.	.	.
=8	=8	=8	=8	=8	=8	=8	=8	=8
1vi7	C#:min7	_	_	.	18.53	.	voice	1C# 1e 1g# 1b
.	.	ain't	ain't	.	.	.	.	.
.	.	what	what	.	.	.	.	.
.	.	_	_	.	.	.	.	.
.	.	they	they	.	.	.	.	.
.	.	used	used	.	.	.	.	.
.	.	_	_	.	.	.	.	.
.	.	to	to	.	.	.	.	.
.	.	be	be	A	.	.	.	.
.	.	_	_	.	.	.	.	.
.	.	no,	.	.	.	.	.	.
.	.	.	no	B	.	.	.	.
.	.	.	_	.	.	.	.	.
=9	=9	=9	=9	=9	=9	=9	=9	=9
1ii7	F#:min7	_	_	.	21.105	newline	voice	1F# 1a 1cc# 1ee
.	.	no	no	B	.	.	.	.
.	.	_	_	.	.	.	.	.
.	.	.	.	.	.	.	.	.
.	.	.	.	.	.	.	.	.
.	.	Where	Where	.	.	.	.	.
.	.	_	_	.	.	.	.	.
.	.	did	did	.	.	.	.	.
.	.	all	all	.	.	.	.	.
=10	=10	=10	=10	=10	=10	=10	=10	=10
1ii7	F#:min7	_	_	.	23.667	.	voice	1F# 1a 1cc# 1ee
.	.	the	the	.	.	.	.	.
.	.	blue	blue	.	.	.	.	.
.	.	_	_	.	.	.	.	.
.	.	skies	skies	.	.	.	.	.
.	.	_	_	.	.	.	.	.
.	.	go?	go?	B	.	.	.	.
.	.	_	_	.	.	.	.	.
.	.	.	.	.	.	.	.	.
=11	=11	=11	=11	=11	=11	=11	=11	=11
1V	B:sus4(b7)	.	.	.	26.23	.	voice	1B 1dd# 1ff#
.	.	Poi	Poi	.	.	.	.	.
.	.	_	_	.	.	.	.	.
.	.	son	son	.	.	.	.	.
.	.	is	is	.	.	.	.	.
.	.	_	_	.	.	.	.	.
.	.	the	the	.	.	.	.	.
.	.	wind	wind	.	.	.	.	.
.	.	_	_	.	.	.	.	.
.	.	that	that	.	.	.	.	.
.	.	blows	blows	B	.	.	.	.
=12	=12	=12	=12	=12	=12	=12	=12	=12
1V	B:sus4(b7)	_	_	.	28.792	.	voice	1B 1dd# 1ff#
.	.	.	.	.	.	.	.	.
.	.	from	from	.	.	.	.	.
.	.	the	the	.	.	.	.	.
.	.	north	north	.	.	.	.	.
.	.	_	_	.	.	.	.	.
.	.	and	and	.	.	.	.	.
.	.	south	south	.	.	.	.	.
.	.	_	_	.	.	.	.	.
.	.	and	and	.	.	.	.	.
.	.	east.	east.	A	.	.	.	.
=13	=13	=13	=13	=13	=13	=13	=13	=13
*>Letter>B	*>Letter>B	*>Letter>B	*>Letter>B	*>Letter>B	*>Letter>B	*>Letter>B	*>Letter>B	*>Letter>B
*>Label>Verse	*>Label>Verse	*>Label>Verse	*>Label>Verse	*>Label>Verse	*>Label>Verse	*>Label>Verse	*>Label>Verse	*>Label>Verse
1I7	E:maj7	.	.	.	31.354	newline	voice	1E 1g# 1b 1dd#
.	.	.	.	.	.	.	.	.
.	.	.	(vocalizing)	.	.	.	.	.
.	.	.	_	.	.	.	.	.
.	.	Whoa,	.	.	.	.	.	.
.	.	_	.	.	.	.	.	.
.	.	_	.	.	.	.	.	.
.	.	mer	.	.	.	.	.	.
=14	=14	=14	=14	=14	=14	=14	=14	=14
1I7	E:maj7	_	.	.	33.897	.	voice	1E 1g# 1b 1dd#
.	.	cy,	.	.	.	.	.	.
.	.	mer	.	.	.	.	.	.
.	.	_	.	.	.	.	.	.
.	.	cy,	.	.	.	.	.	.
.	.	me	.	A	.	.	.	.
.	.	_	.	.	.	.	.	.
.	.	.	Oh,	.	.	.	.	.
.	.	_	.	.	.	.	.	.
.	.	_	_	.	.	.	.	.
.	.	.	mer	.	.	.	.	.
=15	=15	=15	=15	=15	=15	=15	=15	=15
1vi7	C#:min7	.	_	.	36.441	.	voice	1C# 1e 1g# 1b
.	.	.	cy.	.	.	.	.	.
.	.	.	.	.	.	.	.	.
.	.	.	.	.	.	.	.	.
.	.	.	.	.	.	.	.	.
.	.	Oh,	.	.	.	.	.	.
.	.	_	.	.	.	.	.	.
.	.	things	.	.	.	.	.	.
=16	=16	=16	=16	=16	=16	=16	=16	=16
1vi7	C#:min7	_	.	.	38.984	.	voice	1C# 1e 1g# 1b
.	.	ain't	.	.	.	.	.	.
.	.	what	.	.	.	.	.	.
.	.	_	.	.	.	.	.	.
.	.	they	.	.	.	.	.	.
.	.	used	.	.	.	.	.	.
.	.	_	.	.	.	.	.	.
.	.	to	.	.	.	.	.	.
.	.	be,	.	A	.	.	.	.
.	.	_	.	.	.	.	.	.
.	.	no,	(vocalizing)	.	.	.	.	.
.	.	.	_	.	.	.	.	.
=17	=17	=17	=17	=17	=17	=17	=17	=17
1ii7	F#:min7	_	_	.	41.528	newline	voice	1F# 1a 1cc# 1ee
.	.	.	_	.	.	.	.	.
.	.	no	_	.	.	.	.	.
.	.	_	_	.	.	.	.	.
.	.	.	.	.	.	.	.	.
.	.	.	_	.	.	.	.	.
.	.	.	.	.	.	.	.	.
.	.	Oil	.	.	.	.	.	.
.	.	_	.	.	.	.	.	.
.	.	.	Have	.	.	.	.	.
.	.	was	mer	.	.	.	.	.
=18	=18	=18	=18	=18	=18	=18	=18	=18
1ii7	F#:min7	_	_	.	44.115	.	voice	1F# 1a 1cc# 1ee
.	.	ted	cy.	.	.	.	.	.
.	.	on	.	.	.	.	.	.
.	.	_	.	.	.	.	.	.
.	.	the	.	.	.	.	.	.
.	.	o	.	.	.	.	.	.
.	.	_	.	.	.	.	.	.
.	.	cean,	.	.	.	.	.	.
.	.	.	.	.	.	.	.	.
.	.	and	.	.	.	.	.	.
.	.	u-	.	.	.	.	.	.
.	.	-pon	.	.	.	.	.	.
=19	=19	=19	=19	=19	=19	=19	=19	=19
1V	B:sus4(b7)	_	.	.	46.702	.	voice	1B 1dd# 1ff#
.	.	our	.	.	.	.	.	.
.	.	_	.	.	.	.	.	.
.	.	seas,	.	A	.	.	.	.
.	.	.	.	.	.	.	.	.
.	.	fish	.	.	.	.	.	.
.	.	full	.	.	.	.	.	.
.	.	of	.	.	.	.	.	.
.	.	mer	.	.	.	.	.	.
=20	=20	=20	=20	=20	=20	=20	=20	=20
1V	B:sus4(b7)	_	.	.	49.289	.	voice	1B 1dd# 1ff#
.	.	cu-	.	.	.	.	.	.
.	.	-ry	.	A	.	.	.	.
.	.	_	.	.	.	.	.	.
.	.	.	.	.	.	.	.	.
.	.	.	.	.	.	.	.	.
.	.	Oh	.	.	.	.	.	.
.	.	_	.	.	.	.	.	.
.	.	_	.	.	.	.	.	.
=21	=21	=21	=21	=21	=21	=21	=21	=21
*>Letter>B	*>Letter>B	*>Letter>B	*>Letter>B	*>Letter>B	*>Letter>B	*>Letter>B	*>Letter>B	*>Letter>B
*>Label>Verse	*>Label>Verse	*>Label>Verse	*>Label>Verse	*>Label>Verse	*>Label>Verse	*>Label>Verse	*>Label>Verse	*>Label>Verse
1I7	E:maj7	.	.	.	51.876	newline	voice	1E 1g# 1b 1dd#
.	.	.	.	.	.	.	.	.
.	.	.	.	.	.	.	.	.
.	.	Oh,	.	.	.	.	.	.
.	.	_	.	.	.	.	.	.
.	.	mer	.	.	.	.	.	.
=22	=22	=22	=22	=22	=22	=22	=22	=22
1I7	E:maj7	_	.	.	54.433	.	voice	1E 1g# 1b 1dd#
.	.	cy,	.	.	.	.	.	.
.	.	mer	.	.	.	.	.	.
.	.	_	.	.	.	.	.	.
.	.	cy,	.	.	.	.	.	.
.	.	me	.	A	.	.	.	.
.	.	_	.	.	.	.	.	.
.	.	.	(vocalizing)	.	.	.	.	.
.	.	_	.	.	.	.	.	.
.	.	_	_	.	.	.	.	.
.	.	.	_	.	.	.	.	.
.	.	.	_	.	.	.	.	.
.	.	.	_	.	.	.	.	.
=23	=23	=23	=23	=23	=23	=23	=23	=23
1vi7	C#:min7	_	_	.	56.991	.	voice	1C# 1e 1g# 1b
.	.	.	_	.	.	.	.	.
.	.	.	.	.	.	.	.	.
.	.	.	_	.	.	.	.	.
.	.	.	_	.	.	.	.	.
.	.	.	_	.	.	.	.	.
.	.	.	.	.	.	.	.	.
.	.	.	.	.	.	.	.	.
.	.	Oh,	.	.	.	.	.	.
.	.	_	.	.	.	.	.	.
.	.	things	.	.	.	.	.	.
=24	=24	=24	=24	=24	=24	=24	=24	=24
1vi7	C#:min7	_	.	.	59.549	.	voice	1C# 1e 1g# 1b
.	.	ain't	.	.	.	.	.	.
.	.	what	.	.	.	.	.	.
.	.	_	.	.	.	.	.	.
.	.	they	.	.	.	.	.	.
.	.	used	.	.	.	.	.	.
.	.	_	.	.	.	.	.	.
.	.	to	.	.	.	.	.	.
.	.	be,	.	A	.	.	.	.
.	.	_	.	.	.	.	.	.
.	.	no,	Oh,	.	.	.	.	.
.	.	.	help	.	.	.	.	.
=25	=25	=25	=25	=25	=25	=25	=25	=25
1ii7	F#:min7	_	_	.	62.107	newline	voice	1F# 1a 1cc# 1ee
.	.	.	us,	.	.	.	.	.
.	.	no	Fa	.	.	.	.	.
.	.	_	_	.	.	.	.	.
.	.	.	ther.	.	.	.	.	.
.	.	.	.	.	.	.	.	.
.	.	.	.	.	.	.	.	.
.	.	Ra	.	.	.	.	.	.
.	.	_	.	.	.	.	.	.
.	.	di-	.	.	.	.	.	.
.	.	-a	.	.	.	.	.	.
=26	=26	=26	=26	=26	=26	=26	=26	=26
1ii7	F#:min7	_	.	.	64.669	.	voice	1F# 1a 1cc# 1ee
.	.	tion	.	.	.	.	.	.
.	.	un	.	.	.	.	.	.
.	.	_	.	.	.	.	.	.
.	.	der-	.	.	.	.	.	.
.	.	-ground	.	.	.	.	.	.
.	.	_	.	.	.	.	.	.
.	.	and	.	.	.	.	.	.
.	.	in	.	.	.	.	.	.
.	.	_	.	.	.	.	.	.
.	.	the	.	.	.	.	.	.
=27	=27	=27	=27	=27	=27	=27	=27	=27
1V	B:sus4(b7)	_	.	.	67.231	.	voice	1B 1dd# 1ff#
.	.	sky,	.	C	.	.	.	.
.	.	_	.	.	.	.	.	.
.	.	.	.	.	.	.	.	.
.	.	a	.	.	.	.	.	.
.	.	_	.	.	.	.	.	.
.	.	ni-	.	.	.	.	.	.
.	.	-mals	.	.	.	.	.	.
.	.	_	.	.	.	.	.	.
.	.	and	.	.	.	.	.	.
.	.	birds	.	.	.	.	.	.
=28	=28	=28	=28	=28	=28	=28	=28	=28
1V	B:sus4(b7)	_	.	.	69.793	.	voice	1B 1dd# 1ff#
.	.	who	.	.	.	.	.	.
.	.	live	.	.	.	.	.	.
.	.	_	.	.	.	.	.	.
.	.	near-	.	.	.	.	.	.
.	.	-by	.	C	.	.	.	.
.	.	_	.	.	.	.	.	.
.	.	are	.	.	.	.	.	.
.	.	.	(vocalizing)	.	.	.	.	.
.	.	.	_	.	.	.	.	.
.	.	_	_	.	.	.	.	.
.	.	.	_	.	.	.	.	.
.	.	dy-	.	C	.	.	.	.
=29	=29	=29	=29	=29	=29	=29	=29	=29
*>Letter>B	*>Letter>B	*>Letter>B	*>Letter>B	*>Letter>B	*>Letter>B	*>Letter>B	*>Letter>B	*>Letter>B
*>Label>Verse	*>Label>Verse	*>Label>Verse	*>Label>Verse	*>Label>Verse	*>Label>Verse	*>Label>Verse	*>Label>Verse	*>Label>Verse
1I7	E:maj7	-ing.	Help	.	72.356	newline	voice	1E 1g# 1b 1dd#
.	.	.	.	.	.	.	.	.
.	.	.	us,	.	.	.	.	.
.	.	.	Fa	.	.	.	.	.
.	.	.	_	.	.	.	.	.
.	.	.	ther.	.	.	.	.	.
.	.	.	.	.	.	.	.	.
.	.	.	.	.	.	.	.	.
.	.	Oh,	(vocalizing)	.	.	.	.	.
.	.	_	_	.	.	.	.	.
.	.	mer	_	.	.	.	.	.
=30	=30	=30	=30	=30	=30	=30	=30	=30
1I7	E:maj7	_	.	.	74.895	.	voice	1E 1g# 1b 1dd#
.	.	cy,	.	.	.	.	.	.
.	.	.	.	.	.	.	.	.
.	.	mer	_	.	.	.	.	.
.	.	_	.	.	.	.	.	.
.	.	cy,	.	.	.	.	.	.
.	.	.	.	.	.	.	.	.
.	.	me	_	A	.	.	.	.
.	.	_	_	.	.	.	.	.
.	.	_	.	.	.	.	.	.
.	.	_	.	.	.	.	.	.
=31	=31	=31	=31	=31	=31	=31	=31	=31
1vi7	C#:min7	.	Help	.	77.434	.	voice	1C# 1e 1g# 1b
.	.	.	us,	.	.	.	.	.
.	.	.	Fa	.	.	.	.	.
.	.	.	_	.	.	.	.	.
.	.	.	ther.	.	.	.	.	.
.	.	.	.	.	.	.	.	.
.	.	.	.	.	.	.	.	.
.	.	.	Please	.	.	.	.	.
.	.	Oh,	.	.	.	.	.	.
.	.	_	_	.	.	.	.	.
.	.	.	have	.	.	.	.	.
.	.	things	mer	.	.	.	.	.
=32	=32	=32	=32	=32	=32	=32	=32	=32
1vi7	C#:min7	_	_	.	79.973	.	voice	1C# 1e 1g# 1b
.	.	ain't	cy.	.	.	.	.	.
.	.	what	.	.	.	.	.	.
.	.	_	.	.	.	.	.	.
.	.	they	Mm	.	.	.	.	.
.	.	.	.	.	.	.	.	.
.	.	.	_	.	.	.	.	.
.	.	used	.	.	.	.	.	.
.	.	_	.	.	.	.	.	.
.	.	.	(vocalizing)	.	.	.	.	.
.	.	.	_	.	.	.	.	.
=33	=33	=33	=33	=33	=33	=33	=33	=33
1ii7	F#:min7	_	_	.	82.512	newline	voice	1F# 1a 1cc# 1ee
.	.	.	_	.	.	.	.	.
.	.	.	_	.	.	.	.	.
.	.	_	_	.	.	.	.	.
.	.	to	.	.	.	.	.	.
.	.	be	.	A	.	.	.	.
.	.	_	_	.	.	.	.	.
.	.	.	_	.	.	.	.	.
.	.	.	_	.	.	.	.	.
.	.	What	have	.	.	.	.	.
.	.	.	mer	.	.	.	.	.
=34	=34	=34	=34	=34	=34	=34	=34	=34
1ii7	F#:min7	_	_	.	85.09	.	voice	1F# 1a 1cc# 1ee
.	.	.	cy,	.	.	.	.	.
.	.	a-	.	.	.	.	.	.
.	.	-bout	(vocalizing)	.	.	.	.	.
.	.	_	_	.	.	.	.	.
.	.	this	.	.	.	.	.	.
.	.	o	.	.	.	.	.	.
.	.	_	.	.	.	.	.	.
.	.	ver-	(vocalizing)	.	.	.	.	.
.	.	-crow	.	.	.	.	.	.
.	.	_	_	.	.	.	.	.
.	.	.	_	.	.	.	.	.
.	.	ded	_	.	.	.	.	.
=35	=35	=35	=35	=35	=35	=35	=35	=35
1V	B:sus4(b7)	_	_	.	87.668	.	voice	1B 1dd# 1ff#
.	.	land,	_	D	.	.	.	.
.	.	how	.	.	.	.	.	.
.	.	_	_	.	.	.	.	.
.	.	much	.	.	.	.	.	.
.	.	more	.	.	.	.	.	.
.	.	_	.	.	.	.	.	.
.	.	a-	Please,	.	.	.	.	.
.	.	-buse	.	.	.	.	.	.
.	.	_	_	.	.	.	.	.
.	.	from	.	.	.	.	.	.
.	.	man	have	D	.	.	.	.
=36	=36	=36	=36	=36	=36	=36	=36	=36
1V	B:sus4(b7)	_	_	.	90.246	.	voice	1B 1dd# 1ff#
.	.	.	mer-	.	.	.	.	.
.	.	.	-cy	.	.	.	.	.
.	.	can	.	.	.	.	.	.
.	.	.	.	.	.	.	.	.
.	.	she	.	.	.	.	.	.
.	.	_	.	.	.	.	.	.
.	.	stand?	.	D	.	.	.	.
.	.	_	.	.	.	.	.	.
.	.	.	.	.	.	.	.	.
.	.	Woo	.	.	.	.	.	.
=37	=37	=37	=37	=37	=37	=37	=37	=37
*>Letter>B	*>Letter>B	*>Letter>B	*>Letter>B	*>Letter>B	*>Letter>B	*>Letter>B	*>Letter>B	*>Letter>B
*>Label>Verse	*>Label>Verse	*>Label>Verse	*>Label>Verse	*>Label>Verse	*>Label>Verse	*>Label>Verse	*>Label>Verse	*>Label>Verse
1I7	E:maj7	_	.	.	92.823	newline	voice	1E 1g# 1b 1dd#
.	.	.	.	.	.	.	.	.
.	.	.	Oh,	.	.	.	.	.
.	.	.	_	.	.	.	.	.
.	.	.	_	.	.	.	.	.
.	.	.	no,	.	.	.	.	.
=38	=38	=38	=38	=38	=38	=38	=38	=38
1I7	E:maj7	.	_	.	95.397	.	voice	1E 1g# 1b 1dd#
.	.	.	.	.	.	.	.	.
.	.	.	.	.	.	.	.	.
.	.	Ooh	.	.	.	.	.	.
.	.	_	no,	.	.	.	.	.
.	.	_	.	.	.	.	.	.
=39	=39	=39	=39	=39	=39	=39	=39	=39
1vi7	C#:min7	.	_	.	97.971	.	voice	1C# 1e 1g# 1b
.	.	.	no,,	.	.	.	.	.
.	.	.	_	.	.	.	.	.
.	.	.	no,	.	.	.	.	.
.	.	.	_	.	.	.	.	.
.	.	(vocalizing)	.	.	.	.	.	.
.	.	.	no,	.	.	.	.	.
.	.	_	_	.	.	.	.	.
.	.	_	no	.	.	.	.	.
=40	=40	=40	=40	=40	=40	=40	=40	=40
1vi7	C#:min7	_	_	.	100.545	.	voice	1C# 1e 1g# 1b
.	.	_	.	.	.	.	.	.
.	.	_	.	.	.	.	.	.
.	.	.	.	.	.	.	.	.
.	.	No,	.	.	.	.	.	.
.	.	_	.	.	.	.	.	.
=41	=41	=41	=41	=41	=41	=41	=41	=41
1ii7	F#:min7	_	.	.	103.119	newline	voice	1F# 1a 1cc# 1ee
.	.	no,	.	.	.	.	.	.
.	.	_	.	.	.	.	.	.
.	.	no,	.	.	.	.	.	.
.	.	_	.	.	.	.	.	.
.	.	no,	.	.	.	.	.	.
.	.	_	.	.	.	.	.	.
.	.	no...	.	.	.	.	.	.
=42	=42	=42	=42	=42	=42	=42	=42	=42
1ii7	F#:min7	.	.	.	105.674	.	voice	1F# 1a 1cc# 1ee
.	.	.	.	.	.	.	.	.
.	.	My,	.	.	.	.	.	.
.	.	_	.	.	.	.	.	.
.	.	my,	.	.	.	.	.	.
.	.	_	.	.	.	.	.	.
.	.	_	.	.	.	.	.	.
.	.	_	.	.	.	.	.	.
.	.	_	.	.	.	.	.	.
=43	=43	=43	=43	=43	=43	=43	=43	=43
1V	B:sus4(b7)	oh,	.	.	108.229	.	voice	1B 1dd# 1ff#
.	.	my!	.	.	.	.	.	.
.	.	_	.	.	.	.	.	.
.	.	.	.	.	.	.	.	.
.	.	.	.	.	.	.	.	.
.	.	(Vocalizing)	.	.	.	.	.	.
.	.	_	.	.	.	.	.	.
.	.	_	.	.	.	.	.	.
.	.	_	.	.	.	.	.	.
=44	=44	=44	=44	=44	=44	=44	=44	=44
1V	B:sus4(b7)	_	.	.	110.784	.	voice	1B 1dd# 1ff#
.	.	.	.	.	.	.	.	.
.	.	Wee	.	.	.	.	.	.
.	.	_	.	.	.	.	.	.
.	.	_	.	.	.	.	.	.
.	.	.	.	.	.	.	.	.
=45	=45	=45	=45	=45	=45	=45	=45	=45
*>Letter>C	*>Letter>C	*>Letter>C	*>Letter>C	*>Letter>C	*>Letter>C	*>Letter>C	*>Letter>C	*>Letter>C
*>Label>Solo	*>Label>Solo	*>Label>Solo	*>Label>Solo	*>Label>Solo	*>Label>Solo	*>Label>Solo	*>Label>Solo	*>Label>Solo
*F:	*F:	*	*	*	*F:	*F:	*F:	*F:
1I7	F:maj7	.	.	.	113.34	newline	saxophone	1F 1a 1cc 1ee
=46	=46	=46	=46	=46	=46	=46	=46	=46
1I7	F:maj7	.	.	.	115.923	.	saxophone	1F 1a 1cc 1ee
=47	=47	=47	=47	=47	=47	=47	=47	=47
1vi7	D:min7	.	.	.	118.507	.	saxophone	1D 1f 1a 1cc
=48	=48	=48	=48	=48	=48	=48	=48	=48
1vi7	D:min7	.	.	.	121.09	.	saxophone	1D 1f 1a 1cc
=49	=49	=49	=49	=49	=49	=49	=49	=49
1ii7	G:min7	.	.	.	123.674	newline	saxophone	1G 1b- 1dd 1ff
=50	=50	=50	=50	=50	=50	=50	=50	=50
1ii7	G:min7	.	.	.	126.251	.	saxophone	1G 1b- 1dd 1ff
=51	=51	=51	=51	=51	=51	=51	=51	=51
1V7	C:sus4(b7)	.	.	.	128.827	.	saxophone	1C 1e 1g 1b-
=52	=52	=52	=52	=52	=52	=52	=52	=52
1V7	C:sus4(b7)	.	.	.	131.404	.	saxophone	1C 1e 1g 1b-
=53	=53	=53	=53	=53	=53	=53	=53	=53
*>Label>>Fadeout	*>Label>>Fadeout	*>Label>>Fadeout	*>Label>>Fadeout	*>Label>>Fadeout	*>Label>>Fadeout	*>Label>>Fadeout	*>Label>>Fadeout	*>Label>>Fadeout
*b-:	*b-:	*	*	*	*b-:	*b-:	*b-:	*b-:
1i7	B-:min9	.	.	.	133.981	newline	saxophone	1B- 1dd- 1ff 1aa
=54	=54	=54	=54	=54	=54	=54	=54	=54
1i7	B-:min9	.	.	.	136.557	.	saxophone	1B- 1dd- 1ff 1aa
=55	=55	=55	=55	=55	=55	=55	=55	=55
1i7	B-:min9	.	.	.	139.134	.	saxophone	1B- 1dd- 1ff 1aa
=56	=56	=56	=56	=56	=56	=56	=56	=56
1i7	B-:min9	.	.	.	141.71	.	saxophone	1B- 1dd- 1ff 1aa
=57	=57	=57	=57	=57	=57	=57	=57	=57
1i7	B-:min9	.	.	.	143.964	.	saxophone	1B- 1dd- 1ff 1aa
=58	=58	=58	=58	=58	=58	=58	=58	=58
1i7	B-:min9	.	.	.	144.287	.	saxophone	1B- 1dd- 1ff 1aa
=59	=59	=59	=59	=59	=59	=59	=59	=59
1i7	B-:min9	.	.	.	148.151	.	saxophone	1B- 1dd- 1ff 1aa
=60	=60	=60	=60	=60	=60	=60	=60	=60
1i7	B-:min9	.	.	.	148.473	.	saxophone	1B- 1dd- 1ff 1aa
1r;	N	.	.	.	151.286	.	r	1r;
*-	*-	*-	*-	*-	*-	*-	*-	*-
!!!BillboardChartDate: 1971/08/07
!!!BillboardPeak: 4
!!!BillboardWeeksOnChart: 12
!!!COC: Marvin Gaye
!!!ENC: Nathaniel Condit-Schultz
!!!EST: Awating manual error checking and editing.
!!!OTL: Mercy Mercy Me (The Ecology)
!!!RDF**harte: Chris Harte's syntax, used by MIREX
!!!RDF**harmony: **recip + pitch class of root + harmonic quality
!!!RDF**leadinstrument: original McGill primary instrumentation annotation
!!!RDF**phrase: newline = linebreak in original McGill transcription
!!!RDF**timestamp: McGill audio timestamp in seconds
!!!RDT: 2017/01/12/
!!!SampleActualRank: 10
!!!SampleID#: 0819
!!!SampleTargetRank: 10
!!!MBID: 3435f8a3-c934-496a-8191-ad0b667afaa4
